Papirus/24x24/apps/media-downloader.svg

<svg width="24" height="24" version="1.1" xmlns="http://www.w3.org/2000/svg">
 <circle cx="12" cy="12.5" r="10" style="opacity:.2"/>
 <circle cx="12" cy="12" r="10" style="fill:#25b7d3"/>
 <path d="M 12,2 A 10,10 0 0 0 2,12 10,10 0 0 0 2.0098,12.293 10,10 0 0 1 12,2.5 10,10 0 0 1 21.99,12.207 10,10 0 0 0 22,12 10,10 0 0 0 12,2 Z" style="fill:#ffffff;opacity:.2"/>
 <rect x="10.000005" y="16" width="3.9999952" height="3.0000017" style="fill:#e2e4e5;stop-color:#000000"/>
 <rect x="6" y="13.5" width="12" height="4" rx="1.0000004" ry="1.000001" style="opacity:.2;stop-color:#000000"/>
 <rect x="6" y="12.999999" width="12" height="4.000001" rx="1.0000004" ry="1.000001" style="fill:#ffffff;stop-color:#000000"/>
 <path d="m7.0000003 8h9.9999987c0.554 0 1.000001 0.4460005 1.000001 1.000001v5.999997h-12v-5.999997c0-0.5540005 0.4460002-1.000001 1.0000004-1.000001z" style="fill:#3f3f3f;font-variation-settings:normal;stop-color:#000000"/>
 <path d="m7 8c-0.5539996 0-1 0.4460001-1 1v0.5c0-0.5539999 0.4460004-1 1-1h10c0.553999 0 1 0.4460001 1 1v-0.5c0-0.5539999-0.446001-1-1-1h-10z" style="fill:#ffffff;font-variation-settings:normal;opacity:.2;stop-color:#000000"/>
 <circle cx="12" cy="9.5" r="4" style="font-variation-settings:normal;opacity:.1;stop-color:#000000"/>
 <circle cx="12" cy="9" r="4" style="fill:#ffffff"/>
 <path d="m10.999999 6h2v2h2l-3 4-2.9999984-4h1.9999984z" style="fill:#17b198;stop-color:#000000"/>
 <rect x="8.0000067" y="18.499998" width="7.9999928" height="1.0000017" style="opacity:.2;stop-color:#000000"/>
 <rect x="8.0000067" y="18" width="7.9999928" height="1.0000017" style="fill:#f2f2f2;stop-color:#000000"/>
 <path d="m11 6v0.5h2v-0.5h-2zm-2 2 0.375 0.5h1.625v-0.5h-2zm4 0v0.5h1.625l0.375-0.5h-2z" style="fill:#ffffff;opacity:.2;stop-color:#000000"/>
 <ellipse cx="12" cy="16" rx=".50000262" ry=".49999979" style="fill:#cccccc"/>
</svg>

<svg xmlns="http://www.w3.org/2000/svg" width="24" height="24" version="1.1">
 <circle style="opacity:0.2" cx="12" cy="12.5" r="10"/>
 <circle style="fill:#25b7d3" cx="12" cy="12" r="10"/>
 <path style="fill:#ffffff;opacity:0.2" d="M 12,2 A 10,10 0 0 0 2,12 10,10 0 0 0 2.0098,12.293 10,10 0 0 1 12,2.5 10,10 0 0 1 21.99,12.207 10,10 0 0 0 22,12 10,10 0 0 0 12,2 Z"/>
 <rect style="fill:#e2e4e5" width="4" height="2.5" x="10" y="16"/>
 <rect style="opacity:0.2" width="12" height="3" x="6" y="14.5" rx="1" ry="1"/>
 <rect style="fill:#ffffff" width="12" height="3" x="6" y="14" rx="1" ry="1"/>
 <path style="fill:#3f3f3f" d="M 7 8 C 6.446 8 6 8.446 6 9 L 6 15 L 18 15 L 18 9 C 18 8.446 17.554 8 17 8 L 7 8 z"/>
 <path style="opacity:0.1;fill:#ffffff" d="M 7 8 C 6.446 8 6 8.446 6 9 L 6 9.5 C 6 8.946 6.446 8.5 7 8.5 L 17 8.5 C 17.554 8.5 18 8.946 18 9.5 L 18 9 C 18 8.446 17.554 8 17 8 L 7 8 z"/>
 <circle style="opacity:0.1" cx="12" cy="9.5" r="4"/>
 <circle style="fill:#ffffff" cx="12" cy="9" r="4"/>
 <path style="fill:#17b198" d="M 11,6 H 13 V 8 H 15 L 12,12 9,8 H 11 Z"/>
 <rect style="opacity:0.1" width="8" height="1" x="8" y="18.5"/>
 <rect style="fill:#f2f2f2" width="8" height="1" x="8" y="18"/>
 <circle style="fill:#cccccc" cx="12" cy="16" r="1"/>
</svg>
